!!!!SEGMENT: pl-wn--sd-xvi-qu-273--094_gomolka-mikolaj--boze-ktoremu-pomsta-nalezy-sprawnie.krn
!!!cenid: 15xx:299
!!!COM: Gomółka, Mikołaj
!!!COM-rismid: pe30013343
!!!CDT: ~1535->1591/04/30
!!!CNT: Polish
!!!GTL: Melodiae na psalterz polski
!!!OTL: XCIV. Boże, któremu pomsta należy sprawnie,
!!!PDT: 1580
!!!AGN: Sacred
!!!SMS-siglum: PL-Wn
!!!SMS-shelfmark: SD XVI.Qu.273
!!!SMS-shelfwork: 094 G
!!!NIFC-rismid:
!!!ONB-nifc: Melodiae na psalterz polski
**kern	**text	**kern	**text	**kern	**text	**kern	**text
*part4	*part4	*part3	*part3	*part2	*part2	*part1	*part1
*staff4	*staff4	*staff3	*staff3	*staff2	*staff2	*staff1	*staff1
*clefF4	*	*clefC3	*	*clefC2	*	*clefC1	*
*k[b-]	*	*k[b-]	*	*k[b-]	*	*k[b-]	*
*g:	*	*g:	*	*g:	*	*g:	*
*M4/2	*	*M4/2	*	*M4/2	*	*M4/2	*
*met(C|)	*	*met(C|)	*	*met(C|)	*	*met(C|)	*
=-	=-	=-	=-	=-	=-	=-	=-
1G	Bo-	1g	Bo-	1d	Bo-	1b-	Bo-
!	!'ż'	!	!'ż'	!	!'ż'	!	!'ż'
2D/	-ӡe,	2f#X	-ӡe,	2d	-ӡe,	2a	-ӡe,
2G	ťtó-	2g	ťtó-	2d	ťtó-	2b-X	ťtó-
=3-	=3-	=3-	=3-	=3-	=3-	=3-	=3-
2A	-re-	2e	-re-	2a	-re-	2cc#X	-re-
2F#X	-mu	2d	-mu	2a	-mu	1dd	-mu
2G	pomʃ-	4.g	pomʃ-	2b-	pomʃ-	.	.
.	.	8fJ	.	.	.	.	.
2A	.	8eLL	.	4a	.	2cc#X	pomʃ-
.	.	8d	.	.	.	.	.
.	.	4e	.	4g	.	.	.
=4-	=4-	=4-	=4-	=4-	=4-	=4-	=4-
2D/	-tá	2f	-tá	2a	-tá	2dd	-tá
2G	na-	2d	na-	2g	na-	2b-	na-
2.E-X	-le-	2e-X	-le-	2.g	-le-	2ee	-le-
.	.	2B-	-ӡy	.	.	2ee	-ӡy
!	!'ż'	!	!'ż'	!	!'ż'	!	!'ż'
4D/	-ӡy	.	.	4f	-ӡy	.	.
=5-	=5-	=5-	=5-	=5-	=5-	=5-	=5l-
2C	ʃpráw-	1c	ʃpráw-	2.e-X	ʃpráw-	1ee	ʃpráw-
2C	.	.	.	.	.	.	.
.	.	.	.	4f	.	.	.
2GG	-nie/	2B	-nie/	4g	-nie/	2dd	-nie/
.	.	.	.	4a	.	.	.
2G	O-	2.d	O-	4b-	O-	2dd	O-
.	.	.	.	4a	.	.	.
=6-	=6-	=6-	=6-	=6-	=6-	=6-	=6-
!	!'ż'	!	!'ż'	!	!'ż'	!	!'ż'
2G	-ťaӡ	.	.	2g	-ťaӡ	2.b-	-ťaӡ
.	.	4B-	-ťaӡ	.	.	.	.
2.E-X	wʃᴣyt-	2.B-	wʃᴣyt-	2.g	wʃᴣyt-	.	.
.	.	.	.	.	.	4b-	wʃᴣyt-
.	.	.	.	.	.	2g/	-ťie-
4E-	-ťie-	4G	-ťie-	4g	-ťie-	.	.
2E-	-mu	2G	-mu	2e-X	-mu	2g/	-mu
!!LO:PB:g=original
=7-	=7-	=7-	=7-	=7-	=7-	=7-	=7-
1C	świá-	1G	świá-	2e	świá-	2.cc	świá-
.	.	.	.	2c	-tu	.	.
.	.	.	.	.	.	4b-	.
2FF	-tu	2A	-tu	4f\	wła-	4a	-tu
.	.	.	.	4e\	.	4g	.
2BB-	wła-	2B-	wła-	4d/	.	4f	wła-
.	.	.	.	4c/	.	4e	.
=8-	=8-	=8-	=8-	=8-	=8-	=8-	=8-
2D	-dӡą	2F	-dӡą	4B-	-dӡą	2d	-dӡą
.	.	.	.	4A	.	.	.
2F	ʃwą	2F	ʃwą	2A	ʃwą	1d	ʃwą
1E-X	iáw-	1G	iáw-	2B-	iáw-	.	.
.	.	.	.	2G	.	2c	iáw-
=9-	=9-	=9-	=9-	=9-	=9-	=9-	=9-
2D/	-nie.	2F#X	-nie.	2A	-nie.	2d	-nie.
2D/	Ocť-	2A	Ocť-	2f	Ocť-	2dd	Ocť-
2.BB-	-ni	2.B-	-ni	2.f	-ni	2.dd	-ni
4BB-	ʃyę/	4B-	ʃyę/	4f	ʃyę/	4dd	ʃyę/
=10-	=10-	=10-	=10-	=10-	=10-	=10-	=10-
2F	Sę-	4A	Sę-	2.f	Sę-	1cc	Sę-
.	.	4B-	.	.	.	.	.
2FF	.	2A	.	.	.	.	.
.	.	.	.	4e/	.	.	.
2BB-	-dӡia	2B-	-dӡia	2d	-dӡia	2b-	-dӡia
2BB-	wiecӡ-	2d	wiecӡ-	2.b-	wiecӡ-	2dd	wiecӡ-
=11-	=11-	=11-	=11-	=11-	=11-	=11-	=11-
2.E	-néy	2.e-X	-néy	.	.	2.b-	-néy
.	.	.	.	4a	-néy	.	.
.	.	.	.	2g	ʃprá-	.	.
4E	ʃprá-	4e-	ʃprá-	.	.	4b-	ʃprá-
2C	-wied-	2e-	-wied-	2g	-wied-	2cc	-wied-
2D/	-li-	2d	-li-	2f	-li-	1b-	-li-
=12-	=12-	=12-	=12-	=12-	=12-	=12-	=12-
2E	-woś-	1c	-woś-	2g	-woś-	.	.
2F	.	.	.	4f	.	2a	-woś-
.	.	.	.	4e	.	.	.
2BB-	-ći/	2B-	-ći/	2d	-ći/	2b-	-ći/
2D/	A	2A	A	2d	A	2f	A
!!LO:PB:g=original
=13-	=13-	=13-	=13-	=13-	=13-	=13-	=13-
2E	lu-	2G	lu-	2c	lu-	2g/	lu-
2F	-dӡiom	2A	-dӡiom	2c	-dӡiom	1f	-dӡiom
1G	hár-	1B-	hár-	1B-	hár-	.	.
.	.	.	.	.	.	2e	hár-
=14-	=14-	=14-	=14-	=14-	=14-	=14-	=14-
2F	-dym	2c/	-dym	2A	-dym	2f	-dym
2FF	ӡáp-	2A	ӡáp-	2f-	ӡáp-	2a	ӡáp-
2GG	-łáć	2.d	-łáć	2B-	-łáć	2b-	-łáć
2AA	ich	.	.	2c	ich	2a	ich
.	.	4c/	ich	.	.	.	.
=15-	=15-	=15-	=15-	=15-	=15-	=15-	=15-
2BB-	wʃᴣe-	4B-	wʃᴣe-	2d	wʃᴣe-	2g/	wʃᴣe-
.	.	4G	.	.	.	.	.
2C	-tecӡ-	4c	-tecӡ-	2e/	-tecӡ-	1g	-tecӡ-
.	.	4B-	.	.	.	.	.
1D	-noś-	4A	.	2.d	-noś-	.	.
.	.	4G	.	.	.	.	.
.	.	2A	-noś-	.	.	2g	-noś-
.	.	.	.	4c	.	.	.
=16-	=16-	=16-	=16-	=16-	=16-	=16-	=16-
!'ogoneť po lewej stronie'	!	!	!	!	!	!	!
!!LO:N:vis=00
0GG/	-ći.	0G/	-ći.	0Bn/	-ći.	0g/	-ći.
=-	=-	=-	=-	=-	=-	=-	=-
*-	*-	*-	*-	*-	*-	*-	*-
!!!RDF**kern: l = terminal long
!!!system-decoration: s1,s2,s3,s4
!!!ENC:Anna Matuszewska
!!!END:2020-02-17
!!!URL-scan: https://polona.pl/item/melodiae-na-psalterz-polski,Nzk3MTM4ODQ/219 Scan on Polona
!!!IIIF: https://polona.pl/iiif/item/Nzk3MTM4ODQ/manifest.json
